X: 6
T: The Roaring Barmaid
R: jig
M: 6/8
L: 1/8
K: Gmaj
G2G EGD | GFG EGD | GDD BDD | dDD B2A | G2G EGD| GFG EGD|GAB deg|deg edB:|
|:DEG B2B| BAB DEG|B2B BAG|AGE DEG|B2B BAB|AGG BGG|AGG EFG|1 EFG EDB,:|2 (G,3 G,3)|]


Tune 91	Setting 12630

